packages/core/src/svgs/iost.svg

<svg width="24" height="24" viewBox="0 0 24 24" fill="none" xmlns="http://www.w3.org/2000/svg">
<g clip-path="url(#clip0_31_11865)">
<path d="M0 0H24V24H0V0Z" fill="url(#paint0_linear_31_11865)"/>
<path d="M12 4.28564L5.14282 8.14107V15.8588L12 19.7142L18.8571 15.8588V8.14107L12 4.28564ZM12.1431 16.7871L6.87597 13.8599L6.90082 12.4362L12.1371 15.3574L14.6614 13.9341L12.9728 12.9869L12.3364 13.3396L11.1523 12.6775L11.7818 12.3188L10.9525 11.8482L10.4541 12.1332L9.25711 11.4646L9.76197 11.1801L7.08168 9.66979L12.1371 6.82322L16.9123 9.47822L15.6278 10.2025L12.1371 8.2525L9.61239 9.66979L11.0275 10.4682L11.7445 10.0538L12.9411 10.7219L12.2117 11.1304L13.041 11.6009L13.6333 11.2666L14.8238 11.9288L14.2255 12.2691L17.1925 13.9405L12.1431 16.7871Z" fill="white"/>
</g>
<defs>
<linearGradient id="paint0_linear_31_11865" x1="4.46486" y1="4.16229" x2="29.2059" y2="32.5787" gradientUnits="userSpaceOnUse">
<stop stop-color="#1A1E21"/>
<stop offset="1" stop-color="#06060A"/>
</linearGradient>
<clipPath id="clip0_31_11865">
<rect width="24" height="24" fill="white"/>
</clipPath>
</defs>
</svg>

<svg xmlns="http://www.w3.org/2000/svg" width="24" height="24" fill="none" viewBox="0 0 24 24"><g clip-path="url(#a)"><path fill="url(#b)" d="M0 0h24v24H0z"/><path fill="#fff" d="M12 4.286 5.143 8.14v7.718L12 19.714l6.857-3.855V8.14zm.143 12.501L6.876 13.86l.025-1.424 5.236 2.921 2.524-1.423-1.688-.947-.637.353-1.184-.662.63-.36-.83-.47-.498.285-1.197-.668.505-.285-2.68-1.51 5.055-2.847 4.775 2.655-1.284.725-3.49-1.95L9.611 9.67l1.415.798.718-.414 1.196.668-.73.408.83.47.592-.333 1.19.662-.598.34 2.967 1.672z"/></g><defs><linearGradient id="b" x1="4.465" x2="29.206" y1="4.162" y2="32.579" gradientUnits="userSpaceOnUse"><stop stop-color="#1A1E21"/><stop offset="1" stop-color="#06060A"/></linearGradient><clipPath id="a"><path fill="#fff" d="M0 0h24v24H0z"/></clipPath></defs></svg>
